collapse-all-outline.svg

<svg fill="currentColor" viewBox="0 0 24 24"><path d="M4 2a2 2 0 0 0-2 2v10h2V4h10V2zm4 4a2 2 0 0 0-2 2v10h2V8h10V6zm12 6v8h-8v-8zm0-2h-8a2 2 0 0 0-2 2v8a2 2 0 0 0 2 2h8a2 2 0 0 0 2-2v-8a2 2 0 0 0-2-2m-1 7h-6v-2h6z"/></svg>

<svg  viewBox="0 0 24 24" fill="currentColor"><path  d="M4,2A2,2 0 0,0 2,4V14H4V4H14V2H4M8,6A2,2 0 0,0 6,8V18H8V8H18V6H8M20,12V20H12V12H20M20,10H12A2,2 0 0,0 10,12V20A2,2 0 0,0 12,22H20A2,2 0 0,0 22,20V12A2,2 0 0,0 20,10M19,17H13V15H19V17Z"/></svg>
